X:20
T: Up to Moville
S: Reavy Collection: "Music of Corktown"
M: 4/4
L: 1/8
R: hornpipe %"highland"
Z: B.Black
K: G
GA|B2 BA GBdB|(3efg af gedc|B2 BA GBdB|cAFA G2 GA|
B2 BA GBdB|(3efg af gedc|B2 BA GBdB|cAFA G2 :|
Gf|gabg fgaf|edef gdBd|gabg fgaf|ed (3efg a2 ag|
gabg fgaf|(3efg fa gedc|B2 BA GABd|cAFA G2 :|

